X: 401
M: C
L: 1/8
K: Dm
c | fdcA fgaf | dgga baga | fdcA fgag | fdcA cGG ||
c | fdcA fgaf | dgga baga | fdcA faga | dfcA cAG |]


